setcps 0.75
let solo = pI "solo"

d1
$ rot "<0 0 3 0>"
$ n "56 23 67 ~ ~ 87 23 12"
# sound "sherman-808"
# rot "<1 0 4 0>" (djf "0.125 0.35 0.25 0.875")
# legato 1

d1 silence

d2
$ rot "<0 0 3 0>"
$ n "~ 5 ~ ~ ~ ~ 8 ~"
# sound "snare"
# gain 1.1
# djf (slow 4 $ range 0.125 0.95 saw)
# legato 1
# room 0.2
# solo 1


d3
$ slow 8
$ loopAt 2
$ striate 64
$ sound "loop:3*8"
# gain (slow 4 $ range 1 1.2 tri)
# djf (slow 4 $ range 0.85 0.95 tri)
# room 0.2
# size 0.8

hush
